src/icons/sentry.svg

<svg viewBox="0 0 200 200" xmlns="http://www.w3.org/2000/svg">
  <path
    d="M181.58 148.3C185.38 154.949 185.786 161.937 182.598 167.5C179.409 173.063 173.168 176.184 165.568 176.184H151.118C151.321 173.47 151.389 170.756 151.389 168.043C151.389 164.99 151.253 161.937 151.049 158.952H160.548C162.855 158.952 164.754 157.052 164.754 154.745C164.754 154.067 164.551 153.321 164.279 152.71L103.694 47.35C102.948 45.993 101.524 45.179 100.031 45.179C98.5382 45.179 97.1812 45.925 96.4352 47.214L86.8012 63.904C116.042 85.954 135.649 120.079 138.362 158.818C138.566 161.803 138.702 164.856 138.702 167.909C138.702 170.623 138.566 173.337 138.43 176.051H91.2782C91.5502 173.337 91.6852 170.623 91.6852 167.909C91.6852 164.856 91.4822 161.803 91.1432 158.819C88.8362 137.515 78.3882 118.587 62.9882 105.289L56.3382 116.822C67.9402 127.609 75.8782 142.332 78.0482 158.885C78.4562 161.87 78.6592 164.923 78.6592 167.976C78.6592 170.758 78.4562 173.472 78.1842 176.118H34.4252C26.7592 176.118 20.5172 172.929 17.3962 167.434C14.2082 161.938 14.6152 154.883 18.4142 148.234L27.3702 132.833C32.4982 135.598 37.1297 139.198 41.0742 143.485L35.7142 152.575C35.3742 153.186 35.2392 153.865 35.1712 154.611C35.1712 156.918 37.0712 158.817 39.3772 158.817H60.6122C58.8865 148.867 54.3149 139.629 47.4502 132.222C43.5162 127.948 38.8342 124.352 33.7462 121.572L57.4242 80.39C62.4442 83.172 67.2622 86.428 71.6712 90.092C92.0922 106.646 105.864 131.138 108.375 158.818H121.062C118.484 126.456 102.202 97.894 78.0492 78.966C73.5042 75.438 68.6872 72.182 63.6662 69.4L83.8832 34.257C87.6832 27.608 93.5852 23.809 99.8942 23.809C106.272 23.809 112.106 27.609 115.905 34.257L181.58 148.3Z"
    fill="#F06292"
  />
</svg>

<svg
  viewBox="0 0 200 200"
  xml:space="preserve"
  xmlns="http://www.w3.org/2000/svg"
>
  <path
    class="st0"
    d="M181.58 148.3c3.8 6.649 4.206 13.637 1.018 19.2-3.189 5.563-9.43 8.684-17.03 8.684h-14.45c.203-2.714.271-5.428.271-8.141 0-3.053-.136-6.106-.34-9.091h9.499c2.307 0 4.206-1.9 4.206-4.207 0-.678-.203-1.424-.475-2.035L103.694 47.35c-.746-1.357-2.17-2.171-3.663-2.171s-2.85.746-3.596 2.035l-9.634 16.69c29.241 22.05 48.848 56.175 51.561 94.914.204 2.985.34 6.038.34 9.091 0 2.714-.136 5.428-.272 8.142H91.278c.272-2.714.407-5.428.407-8.142 0-3.053-.203-6.106-.542-9.09-2.307-21.304-12.755-40.232-28.155-53.53l-6.65 11.533c11.602 10.787 19.54 25.51 21.71 42.063.408 2.985.611 6.038.611 9.091 0 2.782-.203 5.496-.475 8.142H34.425c-7.666 0-13.908-3.189-17.029-8.684-3.188-5.496-2.781-12.551 1.018-19.2l8.956-15.401a52.432 52.432 0 0 1 13.704 10.652l-5.36 9.09c-.34.611-.475 1.29-.543 2.036 0 2.307 1.9 4.206 4.206 4.206h21.235a52.263 52.263 0 0 0-13.162-26.595c-3.934-4.274-8.616-7.87-13.704-10.65L57.424 80.39c5.02 2.782 9.838 6.038 14.247 9.702 20.421 16.554 34.193 41.046 36.704 68.726h12.687c-2.578-32.362-18.86-60.924-43.013-79.852-4.545-3.528-9.362-6.784-14.383-9.566l20.217-35.143c3.8-6.649 9.702-10.448 16.011-10.448 6.378 0 12.212 3.8 16.011 10.448z"
    fill="#f06292"
  />
</svg>
